docs/.gitbook/assets/icon-droplets-16@dark.svg

<svg width="32" height="32" viewBox="0 0 16 16" fill="none" xmlns="http://www.w3.org/2000/svg">
<rect x="0" y="0" width="16" height="16" fill="#181c1f"/>
<path fill-rule="evenodd" clip-rule="evenodd" d="M4.5 1.75L5.11346 1.31854C4.97301 1.11884 4.74415 1 4.5 1C4.25586 1 4.02699 1.11884 3.88654 1.31854L4.5 1.75ZM4.5 1.75C5.11346 1.31854 5.11352 1.31861 5.11358 1.3187L5.11376 1.31896L5.11431 1.31974L5.11616 1.32237L5.12277 1.33182L5.14725 1.36701C5.1684 1.39753 5.19902 1.44192 5.23774 1.49869C5.31517 1.61219 5.42515 1.77537 5.55685 1.9762C5.81982 2.37719 6.17156 2.93156 6.52441 3.54231C6.87589 4.1507 7.236 4.82793 7.51039 5.47249C7.77458 6.09309 8 6.77441 8 7.36C8 9.45678 6.45022 11 4.5 11C2.54978 11 1 9.45678 1 7.36C1 6.77441 1.22543 6.09309 1.48961 5.47249C1.764 4.82793 2.12411 4.1507 2.47559 3.54231C2.82844 2.93156 3.18018 2.37719 3.44315 1.9762C3.57486 1.77537 3.68483 1.61219 3.76226 1.49869C3.80098 1.44192 3.8316 1.39753 3.85275 1.36701L3.87723 1.33182L3.88384 1.32237L3.88569 1.31974L3.88624 1.31896L3.88642 1.3187C3.88648 1.31861 3.88654 1.31854 4.5 1.75ZM3.77441 4.29269C4.02783 3.85405 4.28188 3.44401 4.5 3.10348C4.71812 3.44401 4.97217 3.85405 5.22559 4.29269C5.56161 4.8743 5.889 5.49332 6.13024 6.06001C6.38168 6.65066 6.5 7.09559 6.5 7.36C6.5 8.66322 5.58735 9.5 4.5 9.5C3.41265 9.5 2.5 8.66322 2.5 7.36C2.5 7.09559 2.61832 6.65066 2.86976 6.06001C3.111 5.49332 3.43839 4.8743 3.77441 4.29269ZM12 7.75L12.5993 7.29904C12.4576 7.11075 12.2356 7 12 7C11.7644 7 11.5424 7.11075 11.4007 7.29904L12 7.75ZM12 7.75C12.5993 7.29904 12.5993 7.29911 12.5994 7.2992L12.5996 7.29942L12.6001 7.30008L12.6017 7.3022L12.6072 7.30967L12.6276 7.33708C12.6452 7.36076 12.6705 7.39507 12.7025 7.43887C12.7664 7.52643 12.857 7.65212 12.9655 7.80672C13.182 8.11521 13.4718 8.54219 13.763 9.01316C14.0525 9.48161 14.3517 10.0071 14.581 10.5104C14.7984 10.9876 15 11.5435 15 12.04C15 13.7843 13.6261 15 12 15C10.3739 15 9 13.7843 9 12.04C9 11.5435 9.20165 10.9876 9.41902 10.5104C9.64827 10.0071 9.94747 9.48161 10.237 9.01316C10.5282 8.54219 10.818 8.11521 11.0345 7.80672C11.143 7.65212 11.2336 7.52643 11.2975 7.43887C11.3295 7.39507 11.3548 7.36076 11.3724 7.33708L11.3928 7.30967L11.3983 7.3022L11.3999 7.30008L11.4004 7.29942L11.4006 7.2992C11.4007 7.29911 11.4007 7.29904 12 7.75ZM11.513 9.80184C11.6802 9.53133 11.8479 9.27497 12 9.04953C12.1521 9.27497 12.3198 9.53133 12.487 9.80184C12.76 10.2434 13.0233 10.7092 13.2159 11.1321C13.4204 11.5811 13.5 11.8865 13.5 12.04C13.5 12.8957 12.8592 13.5 12 13.5C11.1408 13.5 10.5 12.8957 10.5 12.04C10.5 11.8865 10.5796 11.5811 10.7841 11.1321C10.9767 10.7092 11.24 10.2434 11.513 9.80184Z" fill="#fff"/>
</svg>

<svg xmlns="http://www.w3.org/2000/svg" width="32" height="32" fill="none" viewBox="0 0 16 16"><path fill="#181c1f" d="M0 0h16v16H0z"/><path fill="#fff" fill-rule="evenodd" d="m4.5 1.75.613-.431a.75.75 0 0 0-1.226 0zm0 0 .614-.431.002.003.007.01.024.035a22 22 0 0 1 .41.61c.263.4.615.955.967 1.565.352.609.712 1.286.986 1.93.265.621.49 1.302.49 1.888C8 9.457 6.45 11 4.5 11S1 9.457 1 7.36c0-.586.225-1.267.49-1.888.274-.644.634-1.321.986-1.93a33 33 0 0 1 1.377-2.175l.024-.035.007-.01.002-.002v-.001zm-.726 2.543c.254-.439.508-.849.726-1.19.218.341.472.751.726 1.19.336.581.663 1.2.904 1.767.252.59.37 1.036.37 1.3 0 1.303-.913 2.14-2 2.14s-2-.837-2-2.14c0-.264.118-.71.37-1.3a17 17 0 0 1 .904-1.767M12 7.75l.6-.451a.75.75 0 0 0-1.2 0zm0 0 .6-.45.002.002.005.008.02.027a16 16 0 0 1 .338.47c.217.308.507.735.798 1.206.29.469.589.994.818 1.497.217.478.419 1.034.419 1.53 0 1.744-1.374 2.96-3 2.96s-3-1.216-3-2.96c0-.496.202-1.052.419-1.53.23-.503.528-1.028.818-1.497a25 25 0 0 1 1.135-1.676l.02-.027.006-.008.002-.002zm-.487 2.052c.167-.27.335-.527.487-.752.152.225.32.481.487.752.273.441.536.907.729 1.33.204.45.284.755.284.908 0 .856-.64 1.46-1.5 1.46s-1.5-.604-1.5-1.46c0-.153.08-.459.284-.908.193-.423.456-.889.729-1.33" clip-rule="evenodd"/></svg>
